X: 459
T: Wuge fangyang
%%abc-version 2.0
%%abcx-abcm2ps-target-version 5.9.1 (29 Sep 2008)
%%abc-creator hum2abc beta
%%abcx-conversion-date 2013/10/02 07:52:30
%%abc-edited-by Helmut Schaffrath
%%humdrum-veritas 2505060393
%%humdrum-veritas-data 2123882794
%%continueall 1
%%barnumbers 0
L: 1/8
M: 2/4
K: F
c c c f/ [I:setbarnb 1]| 
d c d c | 
G2A A | 
d c G3/ A/ | 
G DC2 | 
F F F G | 
c c c f | 
d c f c | 
B A G F | 
C4 |]  



